X:1
T:Title
%%score { ( 1 3 6 ) | ( 2 4 5 ) }
L:1/8
M:4/4
K:Bb
V:1 treble nm="Grand Piano"
V:3 treble 
V:6 treble 
V:2 bass 
V:4 bass 
V:5 bass 
V:1
 z4 z2[Q:1/4=100] F2 | z2 A2 z2 .G2 | z2 A2 z2 .G2 | [DB][EA]F-[Fc] defd | %4
[M:3/4] [CFc]2 [C=EB]2 [CFA]2 |[M:1/4] z E |[M:4/4] [DB]2 A>G [EA]2 G>F | [DB]2 A>G [EA]2 G>F | %8
 [DB][EA]F-[Fc] defd |[M:3/4] c2 c2 [B,DB]2 |[M:1/4] F2 |[M:4/4] [EAc]4- [EAc]>[_A=B] [=Ac]>[_AB] | %12
 [Ac]6 F2 | [Ae]4- [Ae]>[_Ad] [=Ae]>[_Ad] |[M:3/4] [Ae]6 |[M:1/4] [CFA]2 | %16
[M:4/4] F->[CFA] F-[Fc] d2 [FB]2 | c>=B cd e2 c2 | d>c de f2 f2 |[M:3/4] e2 d2 [FAc]2 | %20
[M:1/4] [CFA]2 |[M:4/4] F->[CFA] F-[Fc] d2 [FB]2 | c>=B cd e2 c2 | d>c de f2 [Ge]2 | %24
[M:9/8] [Fd]3 [Ec]3 [DB]3 |[M:1/4] [F,F]2 |[M:4/4] [Ff]6 z2 | f6 z2 | f6 z2 | %29
 [Af]2[K:bass] E,2 D,2 C,2 | [Bd]6 z2 | [Bd]6 z2 | [DFBd]2 (3[Ac]de [DFBd]2 (3[Ac]de | [Bd]4 z4 | %34
 [df]6 A2 | [df]6 A2 | [Bdf]2 (3[ce]fg [Bdf]2 (3[ce]fg | [df]4 z4 | [Bd]6 z2 | [Bd]6 z2 | %40
 [DFBd]2 (3[Ac]de [DFBd]2 (3[Ac]de | [Bd]4 z4 | [df]6 A2 | [df]6 A2 | %44
 [Bdf]2 (3[ce]fg [Bdf]2 (3[ce]fg | [df]4 z4 | G2- [Gc]2 g2 g2 | f2 =e2 f2 d2 | c2 c2 z4 | %49
[M:3/4] d2 c2 .d2 |[M:1/4] d2 |[M:4/4] G2- [Gc]2 g2 g2 | %52
 z8[Q:1/4=98][Q:1/4=97][Q:1/4=95][Q:1/4=94][Q:1/4=92][Q:1/4=91][Q:1/4=89][Q:1/4=88][Q:1/4=86][Q:1/4=84][Q:1/4=83][Q:1/4=81][Q:1/4=80][Q:1/4=78][Q:1/4=77] | %53
 c6 z2 |[M:3/4] [DFB]6 |] %55
V:2
 z4 z2 F,2 | [B,,F,]2 [B,,F,]2 [C,F,]2 [C,F,]2 | [B,,F,]2 [B,,F,]2 [C,F,]2 [C,F,]2 | %3
 F,2 z2[K:treble] [B,F]2 F2 |[M:3/4] A,2[K:bass] G,2 F,E, |[M:1/4] D,C, | %6
[M:4/4] [B,,F,]2 [B,,F,]2 [C,F,]2 [C,F,]2 | [B,,F,]2 [B,,F,]2 [C,F,]2 [C,F,]2 | %8
 F,2 z2[K:treble] [B,F]2 F2[K:bass] |[M:3/4] [F,B,E]2 [F,A,E]2 B,,2 |[M:1/4] F,2 |[M:4/4] z8 | %12
 E4 z4 | C6 z2 |[M:3/4] C2 C4 |[M:1/4] E,2 |[M:4/4] D,>C, D,[F,A,] [B,F]2 [D,B,]2 | %17
 [F,F]2 [F,F]2[K:treble] z4 | F2 [B,F]2 z4 |[M:3/4] [CFA]2 [B,FB]2[K:bass] F,2 |[M:1/4] E,2 | %21
[M:4/4] D,>C, D,[F,A,] [B,F]2 [D,B,]2 | [F,F]2 [F,F]2[K:treble] z4 | F2 [B,F]2 z4[K:bass] | %24
[M:9/8] [F,B,]3 [F,A,]3 [B,,B,]3 |[M:1/4] z2 |[M:4/4] [F,A,]>G, A,B, C2[K:treble] [A,C]2 | %27
 F6[K:bass] z2 | F6[K:bass] z2 | [F,C]2 z2 z4 | z4 z2[K:treble] [A,EF]2 | z4 z2[K:treble] [A,EF]2 | %32
 [B,,B,]2 (3z[K:treble] Bc[K:bass] [B,,B,]2 (3z[K:treble] Bc | z2 [F,B,D]2 z4 | %34
 [B,DFB]2 [B,D]2 [B,D]2 (3z de | [B,DFB]2 [B,D]2 [B,D]2 (3z de | [B,DF]2 (3z de [B,DF]2 (3z de | %37
 [B,DFB]2[K:bass] [F,D]2 [B,,B,]4 | z4 z2[K:treble] [A,EF]2 | z4 z2[K:treble] [A,EF]2 | %40
 [B,,B,]2 (3z[K:treble] Bc[K:bass] [B,,B,]2 (3z[K:treble] Bc | z2 [F,B,D]2 z4 | %42
 [B,DFB]2 [B,D]2 [B,D]2 (3z de | [B,DFB]2 [B,D]2 [B,D]2 (3z de | [B,DF]2 (3z de [B,DF]2 (3z de | %45
 [B,DFB]2[K:bass] [F,D]2 [B,,B,]4 | [E,B,]2 [E,B,]2 [=E,_D]2 [E,D]2 | %47
 [F,D]2 [^F,_D]2 [=F,=D]2 [F,B,F]2 | F8- |[M:3/4] F2[K:treble] z2 z2 |[M:1/4] [B,F]2 | %51
[M:4/4][K:bass] [E,B,]2 [E,B,]2 [=E,_D]2 [E,D]2 | [F,D]2 [^F,_D]2 [=F,=D]2 [F,F]2 | [F,E]6 F,2 | %54
[M:3/4] B,,6 |] %55
V:3
 x8 | [DB]2 D->[DG] [EA]2 E-[EF] | [DB]2 D->[DG] [EA]2 E-[EF] | z2 .[B,B]2 z4 |[M:3/4] x6 | %5
[M:1/4] [A,F]2 |[M:4/4] z2 D2 z2 E2 | z2 D2 z2 E2 | z2 .[B,B]2 z4 |[M:3/4] x6 |[M:1/4] x2 | %11
[M:4/4] x8 | x8 | x8 |[M:3/4] x6 |[M:1/4] x2 |[M:4/4] [B,B]2 .[B,B]2 z4 | x8 | x8 |[M:3/4] x6 | %20
[M:1/4] x2 |[M:4/4] [B,B]2 .[B,B]2 z4 | x8 | x8 |[M:9/8] x9 |[M:1/4] x2 | %26
[M:4/4] z z/ B,/ CD E2 F2 | z z/ C/ B,C D2 F2 | z2 D2 C2 [B=e]2 | x2[K:bass] x6 | %30
 [DF]2 [DF]2 [DF]2 (3[Ac]de | [DF]2 [DF]2 [DF]2 (3[Ac]de | x8 | [DF]2 Fc [B,DFB]2 [B,DF]2 | %34
 z2 [FB]2 [FB]2 (3[ce]fg | z2 [FB]2 [FB]2 (3[ce]fg | z2 A2 z2 A2 | z2 z [ce] [DFBd]4 | %38
 [DF]2 [DF]2 [DF]2 (3[Ac]de | [DF]2 [DF]2 [DF]2 (3[Ac]de | x8 | [DF]2 Fc [B,DFB]2 [B,DF]2 | %42
 z2 [FB]2 [FB]2 (3[ce]fg | z2 [FB]2 [FB]2 (3[ce]fg | z2 A2 z2 A2 | z2 z [ce] [DFBd]4 | c2 z2 B4 | %47
 B6 z2 | z z/ G,/ z z/ E,/ B2 c2 |[M:3/4] x6 |[M:1/4] x2 |[M:4/4] c2 z2 B4 | f2 =e2 f2 d2 | %53
 z2 A2 G2 [EFc]2 |[M:3/4] x6 |] %55
V:4
 x8 | x8 | x8 | B,,C,D,[F,A,][K:treble] z CB,B, |[M:3/4] x2[K:bass] x4 |[M:1/4] x2 |[M:4/4] x8 | %7
 x8 | B,,C,D,[F,A,][K:treble] z C[B,D][K:bass]B, |[M:3/4] x6 |[M:1/4] x2 | %11
[M:4/4] F,2 F,2 z z/ D/ E>D | z z/ A,/ C>A, F,2 F,2 | F,2 F,2 z z/ =B,/ C>B, | %14
[M:3/4] z z/ A,/ z z/ A,/ F,2 |[M:1/4] x2 |[M:4/4] x8 | A,>_A, =A,B,[K:treble] [F,CF]2 [F,A,F]2 | %18
 B,>[F,A,] z C [B,DF]2 [DFB]2 |[M:3/4] x4[K:bass] x2 |[M:1/4] x2 |[M:4/4] x8 | %22
 A,>_A, =A,B,[K:treble] [F,CF]2 [F,A,F]2 | B,>[F,A,] z C [B,DF]2[K:bass] [E,B,]2 |[M:9/8] x9 | %25
[M:1/4] x2 |[M:4/4] x6[K:treble] x2 | [B,D]>[K:bass]F, D,F, B,2 [B,D]2 | %28
 [CE]2 B,2[K:bass] A,2 [G,C]2 | x8 | [B,,B,]2 [B,,B,]2 [B,,B,]2[K:treble] (3z Bc | %31
 [B,,B,]2 [B,,B,]2 [B,,B,]2[K:treble] (3z Bc | z2 [A,EF]2[K:treble][K:bass] z2 [A,EF]2[K:treble] | %33
 [B,,B,]2 z F B,,2 B,,2 | z4 z2 [CF]2 | z4 z2 [CF]2 | z2 [CF]2 z2 [CF]2 | x2[K:bass] x6 | %38
 [B,,B,]2 [B,,B,]2 [B,,B,]2[K:treble] (3z Bc | [B,,B,]2 [B,,B,]2 [B,,B,]2[K:treble] (3z Bc | %40
 z2 [A,EF]2[K:treble][K:bass] z2 [A,EF]2[K:treble] | [B,,B,]2 z F B,,2 B,,2 | z4 z2 [CF]2 | %43
 z4 z2 [CF]2 | z2 [CF]2 z2 [CF]2 | x2[K:bass] x6 | x8 | x8 | [F,A,]2 [F,A,]2 [D,B,]2 [F,A,]2 | %49
[M:3/4] B,2[K:treble] [F,A,F]2 .[B,F]2 |[M:1/4] x2 |[M:4/4][K:bass] x8 | x8 | x8 |[M:3/4] x6 |] %55
V:5
 x8 | x8 | x8 | x4[K:treble] x4 |[M:3/4] x2[K:bass] x4 |[M:1/4] x2 |[M:4/4] x8 | x8 | %8
 x4[K:treble] x3[K:bass] x |[M:3/4] x6 |[M:1/4] x2 |[M:4/4] z4 F,4- | F,2 z2 z4 | z4 F,4- | %14
[M:3/4] F,2 z2 z2 |[M:1/4] x2 |[M:4/4] x8 | x4[K:treble] x4 | x8 |[M:3/4] x4[K:bass] x2 | %20
[M:1/4] x2 |[M:4/4] x8 | x4[K:treble] x4 | x6[K:bass] x2 |[M:9/8] x9 |[M:1/4] x2 | %26
[M:4/4] x6[K:treble] x2 | x3/2[K:bass] x13/2 | x4[K:bass] x4 | x8 | z4 z2[K:treble] F,2 | %31
 z4 z2[K:treble] F,2 | z2 F,2[K:treble][K:bass] z2 F,2[K:treble] | x8 | z4 z2 F,2 | z4 z2 F,2 | %36
 z2 F,2 z2 F,2 | x2[K:bass] x6 | z4 z2[K:treble] F,2 | z4 z2[K:treble] F,2 | %40
 z2 F,2[K:treble][K:bass] z2 F,2[K:treble] | x8 | z4 z2 F,2 | z4 z2 F,2 | z2 F,2 z2 F,2 | %45
 x2[K:bass] x6 | x8 | x8 | x8 |[M:3/4] x2[K:treble] x4 |[M:1/4] x2 |[M:4/4][K:bass] x8 | x8 | x8 | %54
[M:3/4] x6 |] %55
V:6
 x8 | x8 | x8 | x8 |[M:3/4] x6 |[M:1/4] x2 |[M:4/4] x8 | x8 | x8 |[M:3/4] x6 |[M:1/4] x2 | %11
[M:4/4] x8 | x8 | x8 |[M:3/4] x6 |[M:1/4] x2 |[M:4/4] x8 | x8 | x8 |[M:3/4] x6 |[M:1/4] x2 | %21
[M:4/4] x8 | x8 | x8 |[M:9/8] x9 |[M:1/4] x2 |[M:4/4] x8 | x8 | x8 | x2[K:bass] x6 | x8 | x8 | x8 | %33
 x8 | x8 | x8 | x8 | z2 [FB]2 z4 | x8 | x8 | x8 | x8 | x8 | x8 | x8 | z2 [FB]2 z4 | x8 | x8 | x8 | %49
[M:3/4] x6 |[M:1/4] x2 |[M:4/4] x8 | B8- | B2 z2 z4 |[M:3/4] x6 |] %55

